src/img/svg/logo-bank/22.svg

<svg width="128" height="29" viewBox="0 0 128 29" fill="none" xmlns="http://www.w3.org/2000/svg">
  <path d="M30.001 3.50781H35.88C38.8568 3.50781 40.8661 5.96363 40.8661 8.34502C40.8661 10.8008 38.8568 13.2566 35.88 13.2566H32.2335V17.2008H30.001V3.50781ZM35.6568 11.1729C37.5917 11.1729 38.6335 9.68456 38.6335 8.34502C38.6335 6.93107 37.5917 5.51712 35.6568 5.51712H32.2335V11.1729H35.6568ZM41.5359 12.2148C41.5359 9.31246 43.5452 7.00549 46.6707 7.00549C49.8707 7.00549 51.4335 9.68456 51.4335 12.3636V12.8846H43.7684C44.0661 14.5962 45.5545 15.5636 47.5638 15.5636C48.8289 15.5636 49.8707 15.1915 50.7638 14.6706V16.5311C49.9452 17.1264 48.6056 17.4985 47.1173 17.4985C43.9917 17.4985 41.5359 15.4148 41.5359 12.2148ZM49.201 11.1729C49.201 10.1311 48.3824 8.79153 46.5963 8.79153C44.8847 8.79153 43.9173 9.98223 43.8428 11.1729H49.201ZM53.3684 7.22874H55.601V11.0985H60.6614V7.22874H62.894V17.2008H60.6614V13.0334H55.601V17.2008H53.3684V7.22874ZM64.7545 12.2148C64.7545 9.31246 66.7638 7.00549 69.8893 7.00549C73.0893 7.00549 74.6521 9.68456 74.6521 12.3636V12.8846H66.987C67.2847 14.5962 68.7731 15.5636 70.7824 15.5636C72.0475 15.5636 73.0893 15.1915 73.9824 14.6706V16.5311C73.1638 17.1264 71.8242 17.4985 70.3359 17.4985C67.2103 17.4985 64.7545 15.4148 64.7545 12.2148ZM72.4196 11.1729C72.4196 10.1311 71.601 8.79153 69.8149 8.79153C68.1033 8.79153 67.1359 9.98223 67.0614 11.1729H72.4196ZM75.9173 12.2148C75.9173 9.08921 78.3731 7.00549 81.3498 7.00549C82.5405 7.00549 83.4335 7.22874 84.3266 7.67525V9.53572C83.4335 9.08921 82.6149 8.86595 81.6475 8.86595C79.7126 8.86595 78.0754 10.2055 78.0754 12.2148C78.0754 14.2241 79.6382 15.5636 81.6475 15.5636C82.7638 15.5636 83.6568 15.3404 84.4754 14.8194V16.6799C83.5079 17.2008 82.5405 17.4985 81.2754 17.4985C78.3731 17.4985 75.9173 15.3404 75.9173 12.2148ZM85.5917 12.2148C85.5917 9.08921 88.0475 7.00549 91.0242 7.00549C92.2149 7.00549 93.108 7.22874 94.001 7.67525V9.53572C93.108 9.08921 92.2893 8.86595 91.3219 8.86595C89.387 8.86595 87.7498 10.2055 87.7498 12.2148C87.7498 14.2241 89.3126 15.5636 91.3219 15.5636C92.4382 15.5636 93.3312 15.3404 94.1498 14.8194V16.6799C93.1824 17.2008 92.2149 17.4985 90.9498 17.4985C88.1219 17.4985 85.5917 15.3404 85.5917 12.2148ZM106.354 15.3404V16.9776C106.057 17.2008 105.536 17.2753 105.089 17.2753C104.122 17.2753 103.303 16.8287 103.006 15.8613C102.261 16.6799 101.071 17.4241 99.3591 17.4241C97.2754 17.4241 95.6382 16.2334 95.6382 14.0753C95.6382 11.8427 97.2754 11.1729 99.4335 11.1729H102.857V11.0241C102.857 9.31246 101.443 8.86595 99.9545 8.86595C98.7638 8.86595 97.5731 9.31246 96.8289 9.75898V7.82409C97.5731 7.452 98.6893 7.00549 100.475 7.00549C103.154 7.00549 105.089 8.2706 105.089 10.8008V14.5218C105.089 15.1171 105.461 15.4892 105.908 15.4892C105.908 15.4892 106.131 15.4892 106.354 15.3404ZM102.708 12.8846H100.103C98.6893 12.8846 97.7219 13.1822 97.7219 14.1497C97.7219 15.266 98.6893 15.638 99.88 15.638C101.071 15.638 102.187 15.0427 102.708 14.4473V12.8846ZM107.917 7.22874H110.15V11.0985H115.21V7.22874H117.443V17.2008H115.21V13.0334H110.15V17.2008H107.917V7.22874ZM119.303 12.2148C119.303 9.08921 121.759 7.00549 124.736 7.00549C125.927 7.00549 126.82 7.22874 127.713 7.67525V9.53572C126.82 9.08921 126.001 8.86595 125.034 8.86595C123.099 8.86595 121.461 10.2055 121.461 12.2148C121.461 14.2241 123.024 15.5636 125.034 15.5636C126.15 15.5636 127.043 15.3404 127.861 14.8194V16.6799C126.894 17.2008 125.927 17.4985 124.661 17.4985C121.759 17.4985 119.303 15.3404 119.303 12.2148ZM30.001 22.559H31.0428V24.4939L32.8289 22.559H34.094L32.0103 24.7915L34.4661 27.4706H33.201L31.1173 25.238V27.4706H30.001V22.559ZM35.8056 22.559H37.9638C39.0056 22.559 39.6754 23.1543 39.6754 24.0473C39.6754 24.9404 39.0056 25.5357 37.9638 25.5357H36.8475V27.4706H35.8056V22.559ZM37.8893 24.6427C38.3359 24.6427 38.6335 24.4194 38.6335 24.0473C38.6335 23.6753 38.3359 23.452 37.8893 23.452H36.8475V24.6427H37.8893ZM41.1638 22.559H44.7359V23.452H42.1312V24.4194H44.2149V25.3125H42.1312V26.5776H44.8847V27.4706H41.1638V22.559ZM46.2242 26.5776H46.6707C47.1173 25.9078 47.3405 25.0148 47.3405 23.3776V22.6334H50.7638V26.652H51.4335V28.5869H50.4661V27.6194H47.1173V28.5869H46.1498V26.5776H46.2242ZM49.7963 26.5776V23.452H48.3824C48.3824 24.4939 48.308 25.5357 47.8614 26.5776H49.7963ZM52.9963 22.559H54.0382V25.759L56.4196 22.559H57.3126V27.4706H56.3452V24.2706L53.8149 27.4706H52.9963V22.559ZM62.8196 22.559V23.452H61.2568V27.4706H60.2149V23.452H58.6521V22.559H62.8196Z" fill="#323E48" />
  <path d="M4.17754 22.56H0.977539V8.79251C0.977539 4.10414 4.84731 0.234375 9.53568 0.234375H20.1031V8.7181C20.1031 13.4809 16.2334 17.2762 11.545 17.2762H6.18684L7.37754 14.0762H11.4706C14.4473 14.0762 16.8287 11.6948 16.8287 8.7181V3.43438H9.46126C6.48452 3.43438 4.10312 5.81577 4.10312 8.79251V22.56H4.17754Z" fill="url(#paint0_radial_2002_458)" />
  <defs>
    <radialGradient id="paint0_radial_2002_458" cx="0" cy="0" r="1" gradientUnits="userSpaceOnUse" gradientTransform="translate(1.6168 21.6617) scale(18.5206 18.5206)">
      <stop stop-color="#D6005E" />
      <stop offset="1" stop-color="#E3448A" />
    </radialGradient>
  </defs>
</svg>

<svg width="128" height="29" viewBox="0 0 128 29" fill="none" xmlns="http://www.w3.org/2000/svg"><path d="M30.001 3.508h5.879c2.977 0 4.986 2.456 4.986 4.837 0 2.456-2.01 4.912-4.986 4.912h-3.647V17.2h-2.232V3.508Zm5.656 7.665c1.935 0 2.977-1.488 2.977-2.828 0-1.414-1.042-2.828-2.977-2.828h-3.423v5.656h3.423Zm5.879 1.042c0-2.903 2.01-5.21 5.135-5.21 3.2 0 4.763 2.68 4.763 5.359v.52h-7.666c.298 1.712 1.786 2.68 3.796 2.68 1.265 0 2.307-.373 3.2-.893v1.86c-.819.595-2.158.968-3.647.968-3.125 0-5.581-2.084-5.581-5.284Zm7.665-1.042c0-1.042-.819-2.381-2.605-2.381-1.711 0-2.679 1.19-2.753 2.38H49.2Zm4.167-3.944h2.233v3.87h5.06v-3.87h2.233V17.2h-2.233v-4.168h-5.06V17.2h-2.233V7.229Zm11.386 4.986c0-2.903 2.01-5.21 5.135-5.21 3.2 0 4.763 2.68 4.763 5.359v.52h-7.665c.298 1.712 1.786 2.68 3.795 2.68 1.266 0 2.307-.373 3.2-.893v1.86c-.818.595-2.158.968-3.646.968-3.126 0-5.582-2.084-5.582-5.284Zm7.666-1.042c0-1.042-.819-2.381-2.605-2.381-1.712 0-2.68 1.19-2.754 2.38h5.359Zm3.497 1.042c0-3.126 2.456-5.21 5.433-5.21 1.19 0 2.084.224 2.977.67v1.86c-.894-.446-1.712-.67-2.68-.67-1.934 0-3.572 1.34-3.572 3.35s1.563 3.349 3.572 3.349c1.117 0 2.01-.224 2.828-.745v1.86c-.967.522-1.934.82-3.2.82-2.902 0-5.358-2.159-5.358-5.284Zm9.675 0c0-3.126 2.456-5.21 5.432-5.21 1.19 0 2.084.224 2.977.67v1.86c-.893-.446-1.712-.67-2.68-.67-1.934 0-3.571 1.34-3.571 3.35s1.563 3.349 3.572 3.349c1.116 0 2.01-.224 2.828-.745v1.86c-.968.522-1.935.82-3.2.82-2.828 0-5.358-2.159-5.358-5.284Zm20.762 3.125v1.638c-.297.223-.818.297-1.265.297-.967 0-1.786-.446-2.083-1.414-.745.819-1.935 1.563-3.647 1.563-2.084 0-3.72-1.19-3.72-3.349 0-2.232 1.636-2.902 3.794-2.902h3.424v-.149c0-1.712-1.414-2.158-2.903-2.158-1.19 0-2.38.446-3.125.893V7.824c.744-.372 1.86-.819 3.646-.819 2.679 0 4.614 1.266 4.614 3.796v3.72c0 .596.372.968.819.968 0 0 .223 0 .446-.149Zm-3.646-2.455h-2.605c-1.414 0-2.381.297-2.381 1.265 0 1.116.967 1.488 2.158 1.488 1.191 0 2.307-.595 2.828-1.19v-1.563Zm5.209-5.656h2.233v3.87h5.06v-3.87h2.233V17.2h-2.233v-4.168h-5.06V17.2h-2.233V7.229Zm11.386 4.986c0-3.126 2.456-5.21 5.433-5.21 1.191 0 2.084.224 2.977.67v1.86c-.893-.446-1.712-.67-2.679-.67-1.935 0-3.573 1.34-3.573 3.35s1.563 3.349 3.573 3.349c1.116 0 2.009-.224 2.827-.745v1.86c-.967.522-1.934.82-3.2.82-2.902 0-5.358-2.159-5.358-5.284ZM30.001 22.559h1.042v1.935l1.786-1.935h1.265l-2.084 2.232 2.456 2.68h-1.265l-2.084-2.233v2.233h-1.116v-4.912Zm5.805 0h2.158c1.042 0 1.711.595 1.711 1.488s-.67 1.489-1.711 1.489h-1.117v1.935h-1.041v-4.912Zm2.083 2.084c.447 0 .744-.224.744-.596s-.297-.595-.744-.595h-1.042v1.19h1.042Zm3.275-2.084h3.572v.893H42.13v.967h2.084v.893H42.13v1.266h2.754v.893h-3.721v-4.912Zm5.06 4.019h.447c.446-.67.67-1.563.67-3.2v-.745h3.423v4.019h.67v1.935h-.968v-.968h-3.349v.968h-.967v-2.01h.074Zm3.572 0v-3.126h-1.414c0 1.042-.074 2.084-.52 3.126h1.934Zm3.2-4.019h1.042v3.2l2.382-3.2h.893v4.912h-.968v-3.2l-2.53 3.2h-.819v-4.912Zm9.824 0v.893h-1.563v4.019h-1.042v-4.019h-1.563v-.893h4.168Z" fill="#323E48"/><path d="M4.178 22.56h-3.2V8.793c0-4.689 3.87-8.559 8.558-8.559h10.567v8.484c0 4.763-3.87 8.558-8.558 8.558H6.187l1.19-3.2h4.094a5.336 5.336 0 0 0 5.358-5.358V3.434H9.46a5.336 5.336 0 0 0-5.358 5.359V22.56h.075Z" fill="url(#a)"/><defs><radialGradient id="a" cx="0" cy="0" r="1" gradientUnits="userSpaceOnUse" gradientTransform="translate(1.617 21.662) scale(18.5206)"><stop stop-color="#D6005E"/><stop offset="1" stop-color="#E3448A"/></radialGradient></defs></svg>
